ix/buildings_broken.svg

<svg viewBox="0 0 24 24" fill="none" xmlns="http://www.w3.org/2000/svg" height="1em" width="1em">
  <path d="M2 11c0-2 1-3 3-3h5v11c0 2 1 3 3 3H5c-2 0-3-1-3-3v-4m8.11-11c-.08.3-.11.63-.11 1v3H5V6c0-1.1.9-2 2-2h3.11ZM14 8v5m4-5v5m-1 4h-2c-.55 0-1 .45-1 1v4h4v-4c0-.55-.45-1-1-1ZM6 13v4" stroke="#292D32" stroke-width="1.5" stroke-miterlimit="10" stroke-linecap="round" stroke-linejoin="round"/>
  <path d="M10 19V5c0-2 1-3 3-3h6c2 0 3 1 3 3v14c0 2-1 3-3 3h-6c-2 0-3-1-3-3Z" stroke="#292D32" stroke-width="1.5" stroke-miterlimit="10" stroke-linecap="round" stroke-linejoin="round"/>
</svg>

<svg viewBox="0 0 24 24" fill="none" xmlns="http://www.w3.org/2000/svg" height="1em" width="1em">
  <path d="M2 11C2 9 3 8 5 8H10V19C10 21 11 22 13 22H5C3 22 2 21 2 19V15" stroke="#292D32" stroke-width="1.5" stroke-miterlimit="10" stroke-linecap="round" stroke-linejoin="round"/>
  <path d="M10.11 4C10.03 4.3 10 4.63 10 5V8H5V6C5 4.9 5.9 4 7 4H10.11Z" stroke="#292D32" stroke-width="1.5" stroke-miterlimit="10" stroke-linecap="round" stroke-linejoin="round"/>
  <path d="M14 8V13" stroke="#292D32" stroke-width="1.5" stroke-miterlimit="10" stroke-linecap="round" stroke-linejoin="round"/>
  <path d="M18 8V13" stroke="#292D32" stroke-width="1.5" stroke-miterlimit="10" stroke-linecap="round" stroke-linejoin="round"/>
  <path d="M17 17H15C14.45 17 14 17.45 14 18V22H18V18C18 17.45 17.55 17 17 17Z" stroke="#292D32" stroke-width="1.5" stroke-miterlimit="10" stroke-linecap="round" stroke-linejoin="round"/>
  <path d="M6 13V17" stroke="#292D32" stroke-width="1.5" stroke-miterlimit="10" stroke-linecap="round" stroke-linejoin="round"/>
  <path d="M10 19V5C10 3 11 2 13 2H19C21 2 22 3 22 5V19C22 21 21 22 19 22H13C11 22 10 21 10 19Z" stroke="#292D32" stroke-width="1.5" stroke-miterlimit="10" stroke-linecap="round" stroke-linejoin="round"/>
</svg>
